illustrations/assets/Add user profile/il_axis_add_user_profile_light.svg

<svg width="160" height="160" viewBox="0 0 160 160" fill="none" xmlns="http://www.w3.org/2000/svg">
<path d="M84.7108 134.391C114.748 134.391 139.1 110.04 139.1 79.8949C139.1 49.7502 114.641 25.3984 84.7108 25.3984C54.6734 25.3984 30.3216 49.7502 30.3216 79.8949C30.3216 110.04 54.6734 134.391 84.7108 134.391Z" fill="#F0F0F0"/>
<path d="M135.56 44.1716C137.989 44.1716 139.958 42.2024 139.958 39.7733C139.958 37.3442 137.989 35.375 135.56 35.375C133.131 35.375 131.162 37.3442 131.162 39.7733C131.162 42.2024 133.131 44.1716 135.56 44.1716Z" fill="#E8DFD3"/>
<path d="M141.997 27.0075C143.655 27.0075 145 25.6627 145 24.0037C145 22.3448 143.655 21 141.997 21C140.338 21 138.993 22.3448 138.993 24.0037C138.993 25.6627 140.338 27.0075 141.997 27.0075Z" fill="#E8DFD3"/>
<path d="M33.2182 44.0644C34.8771 44.0644 36.2219 42.7196 36.2219 41.0606C36.2219 39.4017 34.8771 38.0569 33.2182 38.0569C31.5593 38.0569 30.2144 39.4017 30.2144 41.0606C30.2144 42.7196 31.5593 44.0644 33.2182 44.0644Z" fill="#E8DFD3"/>
<path d="M20.5786 108.997C23.6595 108.997 26.157 106.499 26.157 103.418C26.157 100.338 23.6595 97.84 20.5786 97.84C17.4978 97.84 15.0002 100.338 15.0002 103.418C15.0002 106.499 17.4978 108.997 20.5786 108.997Z" fill="#E8DFD3"/>
<g filter="url(#filter0_d_3306_34245)">
<path d="M128.117 115.453H41.3036C37.3122 115.453 34.0692 112.21 34.0692 108.219V52.5882C34.0692 48.5967 37.3122 45.3537 41.3036 45.3537H128.117C132.109 45.3537 135.352 48.5967 135.352 52.5882V108.468C135.103 112.21 131.859 115.453 128.117 115.453Z" fill="url(#paint0_linear_3306_34245)"/>
</g>
<path d="M49.8723 48.9899C49.8723 48.3975 50.3525 47.9172 50.945 47.9172H63.8334C64.4259 47.9172 64.9062 48.3975 64.9062 48.9899V52.3722C64.9062 52.9647 64.4259 53.445 63.8334 53.445H50.945C50.3525 53.445 49.8723 52.9647 49.8723 52.3722V48.9899Z" fill="#D4CDC0"/>
<path d="M103.762 48.9899C103.762 48.3975 104.242 47.9172 104.834 47.9172H117.723C118.315 47.9172 118.796 48.3975 118.796 48.9899V52.3722C118.796 52.9647 118.315 53.445 117.723 53.445H104.834C104.242 53.445 103.762 52.9647 103.762 52.3722V48.9899Z" fill="#D4CDC0"/>
<g filter="url(#filter1_d_3306_34245)">
<path d="M61.6851 35.3749H53.1036C52.5111 35.3749 52.0308 35.8552 52.0308 36.4476V49.3908C52.0308 49.9833 52.5111 50.4636 53.1036 50.4636H61.6851C62.2775 50.4636 62.7578 49.9833 62.7578 49.3908V36.4476C62.7578 35.8552 62.2775 35.3749 61.6851 35.3749Z" fill="url(#paint1_linear_3306_34245)"/>
<path d="M115.575 35.3749H106.993C106.401 35.3749 105.921 35.8552 105.921 36.4476V49.3908C105.921 49.9833 106.401 50.4636 106.993 50.4636H115.575C116.167 50.4636 116.648 49.9833 116.648 49.3908V36.4476C116.648 35.8552 116.167 35.3749 115.575 35.3749Z" fill="url(#paint2_linear_3306_34245)"/>
</g>
<path fill-rule="evenodd" clip-rule="evenodd" d="M65.5012 64.9115C59.7697 64.9115 55.1234 69.5578 55.1234 75.2893C55.1234 78.4579 56.5434 81.2949 58.7818 83.1984C53.6832 85.7132 50.1343 90.9788 50.1343 96.9962C50.1343 98.1811 51.0949 99.1417 52.2799 99.1417C53.4648 99.1417 54.4254 98.1811 54.4254 96.9962C54.4254 90.9466 59.452 85.9201 65.5015 85.9201C71.5511 85.9201 76.5776 90.9466 76.5776 96.9962C76.5776 98.1811 77.5382 99.1417 78.7232 99.1417C79.9081 99.1417 80.8687 98.1811 80.8687 96.9962C80.8687 90.9787 77.3197 85.713 72.2209 83.1983C74.4592 81.2947 75.8791 78.4578 75.8791 75.2893C75.8791 69.5578 71.2328 64.9115 65.5012 64.9115ZM59.4144 75.2893C59.4144 71.9277 62.1396 69.2025 65.5012 69.2025C68.8629 69.2025 71.588 71.9277 71.588 75.2893C71.588 78.651 68.8629 81.3762 65.5012 81.3762C62.1396 81.3762 59.4144 78.651 59.4144 75.2893Z" fill="#BCB9B3"/>
<path d="M90.2986 73.7926C90.2986 72.6076 91.2592 71.647 92.4441 71.647H119.137C120.322 71.647 121.282 72.6076 121.282 73.7926C121.282 74.9775 120.322 75.9381 119.137 75.9381H92.4441C91.2592 75.9381 90.2986 74.9775 90.2986 73.7926Z" fill="#BCB9B3"/>
<path d="M92.4441 85.1181C91.2592 85.1181 90.2986 86.0787 90.2986 87.2637C90.2986 88.4486 91.2592 89.4092 92.4441 89.4092H102.922C104.107 89.4092 105.067 88.4486 105.067 87.2637C105.067 86.0787 104.107 85.1181 102.922 85.1181H92.4441Z" fill="#BCB9B3"/>
<path d="M81.3915 138.627L81.3915 138.627L81.3846 138.626C72.4875 136.779 66.7783 128.049 68.6253 119.15C70.4733 110.246 79.1209 104.461 88.0101 106.39L88.0131 106.39C91.1942 107.06 93.9669 108.651 96.3321 110.845C100.273 114.79 101.948 120.494 100.776 125.857C100.437 127.295 99.9306 128.814 99.3439 130.073C97.7512 133.17 95.2373 135.602 92.1283 137.199C88.9311 138.797 85.1566 139.464 81.3915 138.627Z" fill="#DEDBD5" stroke="#F0F0F0"/>
<path d="M90.1054 121.038H86.2131V117.145C86.2131 116.367 85.6076 115.675 84.7427 115.675C83.9642 115.675 83.2723 116.28 83.2723 117.145V121.038H79.38C78.6015 121.038 77.9095 121.643 77.9095 122.508C77.9095 123.373 78.515 123.978 79.38 123.978H83.2723V127.871C83.2723 128.649 83.8777 129.341 84.7427 129.341C85.5211 129.341 86.2131 128.736 86.2131 127.871V123.978H90.1054C90.8838 123.978 91.5758 123.373 91.5758 122.508C91.5758 121.643 90.8838 121.038 90.1054 121.038Z" fill="white"/>
<defs>
<filter id="filter0_d_3306_34245" x="22.0692" y="41.3537" width="125.283" height="94.0997" filterUnits="userSpaceOnUse" color-interpolation-filters="sRGB">
<feFlood flood-opacity="0" result="BackgroundImageFix"/>
<feColorMatrix in="SourceAlpha" type="matrix" values="0 0 0 0 0 0 0 0 0 0 0 0 0 0 0 0 0 0 127 0" result="hardAlpha"/>
<feOffset dy="8"/>
<feGaussianBlur stdDeviation="6"/>
<feColorMatrix type="matrix" values="0 0 0 0 0.576471 0 0 0 0 0.501961 0 0 0 0 0.396078 0 0 0 0.17 0"/>
<feBlend mode="normal" in2="BackgroundImageFix" result="effect1_dropShadow_3306_34245"/>
<feBlend mode="normal" in="SourceGraphic" in2="effect1_dropShadow_3306_34245" result="shape"/>
</filter>
<filter id="filter1_d_3306_34245" x="30.0308" y="24.3749" width="108.617" height="59.0887" filterUnits="userSpaceOnUse" color-interpolation-filters="sRGB">
<feFlood flood-opacity="0" result="BackgroundImageFix"/>
<feColorMatrix in="SourceAlpha" type="matrix" values="0 0 0 0 0 0 0 0 0 0 0 0 0 0 0 0 0 0 127 0" result="hardAlpha"/>
<feOffset dy="11"/>
<feGaussianBlur stdDeviation="11"/>
<feColorMatrix type="matrix" values="0 0 0 0 0.576471 0 0 0 0 0.501961 0 0 0 0 0.396078 0 0 0 0.37 0"/>
<feBlend mode="normal" in2="BackgroundImageFix" result="effect1_dropShadow_3306_34245"/>
<feBlend mode="normal" in="SourceGraphic" in2="effect1_dropShadow_3306_34245" result="shape"/>
</filter>
<linearGradient id="paint0_linear_3306_34245" x1="84.6775" y1="43.7322" x2="84.6775" y2="116.209" gradientUnits="userSpaceOnUse">
<stop stop-color="#FDFEFF"/>
<stop offset="0.9964" stop-color="#F5F2EC"/>
</linearGradient>
<linearGradient id="paint1_linear_3306_34245" x1="111.281" y1="35.0258" x2="111.281" y2="50.6262" gradientUnits="userSpaceOnUse">
<stop stop-color="#FDFEFF"/>
<stop offset="0.9964" stop-color="#F5F2EC"/>
</linearGradient>
<linearGradient id="paint2_linear_3306_34245" x1="111.281" y1="35.0258" x2="111.281" y2="50.6262" gradientUnits="userSpaceOnUse">
<stop stop-color="#FDFEFF"/>
<stop offset="0.9964" stop-color="#F5F2EC"/>
</linearGradient>
</defs>
</svg>

<svg xmlns="http://www.w3.org/2000/svg" width="160" height="160" fill="none" viewBox="0 0 160 160">
  <path fill="#F0F0F0" d="M84.71 134.391c30.038 0 54.39-24.351 54.39-54.496 0-30.145-24.459-54.497-54.39-54.497-30.037 0-54.389 24.352-54.389 54.497s24.352 54.496 54.39 54.496Z"/>
  <path fill="#E8DFD3" d="M135.559 44.172a4.398 4.398 0 1 0 .001-8.797 4.398 4.398 0 0 0-.001 8.797Zm6.437-17.164a3.004 3.004 0 1 0 0-6.008 3.004 3.004 0 0 0 0 6.008ZM33.218 44.064a3.004 3.004 0 1 0 0-6.007 3.004 3.004 0 0 0 0 6.007Zm-12.64 64.933a5.579 5.579 0 1 0 0-11.158 5.579 5.579 0 0 0 0 11.158Z"/>
  <g filter="url(#a)">
    <path fill="url(#b)" d="M128.117 115.453H41.303a7.24 7.24 0 0 1-7.234-7.234v-55.63a7.24 7.24 0 0 1 7.234-7.235h86.814a7.24 7.24 0 0 1 7.235 7.234v55.88c-.25 3.742-3.493 6.985-7.235 6.985Z"/>
  </g>
  <path fill="#D4CDC0" d="M49.872 48.99c0-.593.48-1.073 1.072-1.073h12.889c.592 0 1.073.48 1.073 1.073v3.382c0 .593-.48 1.073-1.073 1.073H50.944c-.592 0-1.072-.48-1.072-1.073V48.99Zm53.889 0c0-.593.481-1.073 1.073-1.073h12.888c.593 0 1.073.48 1.073 1.073v3.382c0 .593-.48 1.073-1.073 1.073h-12.888c-.592 0-1.073-.48-1.073-1.073V48.99Z"/>
  <g filter="url(#c)">
    <path fill="url(#d)" d="M61.684 35.375h-8.581c-.592 0-1.073.48-1.073 1.073V49.39c0 .592.48 1.073 1.073 1.073h8.581c.593 0 1.073-.48 1.073-1.073V36.448c0-.593-.48-1.073-1.072-1.073Z"/>
  </g>
  <g filter="url(#e)">
    <path fill="url(#f)" d="M115.574 35.375h-8.581c-.593 0-1.073.48-1.073 1.073V49.39c0 .592.48 1.073 1.073 1.073h8.581c.593 0 1.073-.48 1.073-1.073V36.448c0-.593-.48-1.073-1.073-1.073Z"/>
  </g>
  <path fill="#BCB9B3" fill-rule="evenodd" d="M65.5 69.203a6.087 6.087 0 1 0 0 12.173 6.087 6.087 0 0 0 0-12.173ZM55.124 75.29c0-5.732 4.646-10.378 10.378-10.378 5.731 0 10.378 4.646 10.378 10.377 0 5.732-4.647 10.378-10.378 10.378-5.732 0-10.378-4.646-10.378-10.377Z" clip-rule="evenodd"/>
  <path fill="#BCB9B3" fill-rule="evenodd" d="M65.501 85.92c-6.05 0-11.076 5.026-11.076 11.076a2.145 2.145 0 1 1-4.29 0c0-8.42 6.947-15.367 15.366-15.367 8.42 0 15.368 6.948 15.368 15.367a2.146 2.146 0 0 1-4.291 0c0-6.05-5.027-11.076-11.077-11.076Zm24.797-12.127c0-1.185.96-2.146 2.146-2.146h26.693a2.145 2.145 0 0 1 0 4.291H92.444a2.146 2.146 0 0 1-2.146-2.145Zm0 13.471c0-1.185.96-2.146 2.146-2.146h10.477a2.146 2.146 0 1 1 0 4.291H92.444a2.146 2.146 0 0 1-2.146-2.145Z" clip-rule="evenodd"/>
  <g filter="url(#g)">
    <path fill="url(#h)" d="M101.263 125.968c-.346 1.47-.865 3.027-1.47 4.325-1.644 3.2-4.239 5.708-7.439 7.352-3.287 1.643-7.18 2.335-11.071 1.47-9.169-1.903-15.05-10.898-13.148-20.067 1.903-9.168 10.812-15.136 19.98-13.147 3.288.692 6.142 2.335 8.564 4.584 4.065 4.065 5.795 9.947 4.584 15.483Z"/>
  </g>
  <path fill="#fff" d="M90.105 121.038h-3.892v-3.893c0-.778-.606-1.47-1.47-1.47-.78 0-1.471.605-1.471 1.47v3.893H79.38c-.779 0-1.47.605-1.47 1.47s.605 1.47 1.47 1.47h3.892v3.893c0 .778.605 1.47 1.47 1.47.779 0 1.47-.605 1.47-1.47v-3.893h3.893c.778 0 1.47-.605 1.47-1.47s-.692-1.47-1.47-1.47Z"/>
  <defs>
    <linearGradient id="b" x1="84.677" x2="84.677" y1="43.732" y2="116.209" gradientUnits="userSpaceOnUse">
      <stop stop-color="#FDFEFF"/>
      <stop offset=".996" stop-color="#F5F2EC"/>
    </linearGradient>
    <linearGradient id="d" x1="57.39" x2="57.39" y1="35.026" y2="50.626" gradientUnits="userSpaceOnUse">
      <stop stop-color="#FDFEFF"/>
      <stop offset=".996" stop-color="#F5F2EC"/>
    </linearGradient>
    <linearGradient id="f" x1="111.28" x2="111.28" y1="35.026" y2="50.626" gradientUnits="userSpaceOnUse">
      <stop stop-color="#FDFEFF"/>
      <stop offset=".996" stop-color="#F5F2EC"/>
    </linearGradient>
    <linearGradient id="h" x1="100.299" x2="68.811" y1="105.518" y2="105.627" gradientUnits="userSpaceOnUse">
      <stop stop-color="#606060"/>
      <stop offset="1" stop-color="#7B7B7B"/>
    </linearGradient>
    <filter id="a" width="125.283" height="94.1" x="22.069" y="41.354" color-interpolation-filters="sRGB" filterUnits="userSpaceOnUse">
      <feFlood flood-opacity="0" result="BackgroundImageFix"/>
      <feColorMatrix in="SourceAlpha" result="hardAlpha" values="0 0 0 0 0 0 0 0 0 0 0 0 0 0 0 0 0 0 127 0"/>
      <feOffset dy="8"/>
      <feGaussianBlur stdDeviation="6"/>
      <feColorMatrix values="0 0 0 0 0.576471 0 0 0 0 0.501961 0 0 0 0 0.396078 0 0 0 0.17 0"/>
      <feBlend in2="BackgroundImageFix" result="effect1_dropShadow_3306_34245"/>
      <feBlend in="SourceGraphic" in2="effect1_dropShadow_3306_34245" result="shape"/>
    </filter>
    <filter id="c" width="54.727" height="59.089" x="30.03" y="24.375" color-interpolation-filters="sRGB" filterUnits="userSpaceOnUse">
      <feFlood flood-opacity="0" result="BackgroundImageFix"/>
      <feColorMatrix in="SourceAlpha" result="hardAlpha" values="0 0 0 0 0 0 0 0 0 0 0 0 0 0 0 0 0 0 127 0"/>
      <feOffset dy="11"/>
      <feGaussianBlur stdDeviation="11"/>
      <feColorMatrix values="0 0 0 0 0.576471 0 0 0 0 0.501961 0 0 0 0 0.396078 0 0 0 0.37 0"/>
      <feBlend in2="BackgroundImageFix" result="effect1_dropShadow_3306_34245"/>
      <feBlend in="SourceGraphic" in2="effect1_dropShadow_3306_34245" result="shape"/>
    </filter>
    <filter id="e" width="54.727" height="59.089" x="83.92" y="24.375" color-interpolation-filters="sRGB" filterUnits="userSpaceOnUse">
      <feFlood flood-opacity="0" result="BackgroundImageFix"/>
      <feColorMatrix in="SourceAlpha" result="hardAlpha" values="0 0 0 0 0 0 0 0 0 0 0 0 0 0 0 0 0 0 127 0"/>
      <feOffset dy="11"/>
      <feGaussianBlur stdDeviation="11"/>
      <feColorMatrix values="0 0 0 0 0.576471 0 0 0 0 0.501961 0 0 0 0 0.396078 0 0 0 0.37 0"/>
      <feBlend in2="BackgroundImageFix" result="effect1_dropShadow_3306_34245"/>
      <feBlend in="SourceGraphic" in2="effect1_dropShadow_3306_34245" result="shape"/>
    </filter>
    <filter id="g" width="57.865" height="57.972" x="55.778" y="97.518" color-interpolation-filters="sRGB" filterUnits="userSpaceOnUse">
      <feFlood flood-opacity="0" result="BackgroundImageFix"/>
      <feColorMatrix in="SourceAlpha" result="hardAlpha" values="0 0 0 0 0 0 0 0 0 0 0 0 0 0 0 0 0 0 127 0"/>
      <feOffset dy="4"/>
      <feGaussianBlur stdDeviation="6"/>
      <feColorMatrix values="0 0 0 0 0.482733 0 0 0 0 0.482733 0 0 0 0 0.482733 0 0 0 0.27 0"/>
      <feBlend in2="BackgroundImageFix" result="effect1_dropShadow_3306_34245"/>
      <feBlend in="SourceGraphic" in2="effect1_dropShadow_3306_34245" result="shape"/>
    </filter>
  </defs>
</svg>
